svg/Pictogram/pictograms-aem-0044-wait_until_moving_parts_have_stopped_completely.svg

<?xml version="1.0" encoding="ISO-8859-1" standalone="yes"?>
<svg height="304.014" width="304.015">
  <metadata>
    <rdf:RDF xmlns:cc="http://web.resource.org/cc/" xmlns:dc="http://purl.org/dc/elements/1.1/" xmlns:rdf="http://www.w3.org/1999/02/22-rdf-syntax-ns#">
      <cc:Work rdf:about="">
        <dc:title></dc:title>
        <dc:description></dc:description>
        <dc:subject>
          <rdf:Bag>
            <rdf:li></rdf:li>
          </rdf:Bag>
        </dc:subject>
        <dc:publisher>
          <cc:Agent rdf:about="http://www.unece.org/trans/danger/publi/ghs/pictograms.html">
            <dc:title>Source: UNECE GHS of Classification and Labeling of Chemicals, Source: AEM Pictorial Database, Source: AEM Pictorial Database, Source: AEM Pictorial Database, Source: AEM Pictorial Database</dc:title>
          </cc:Agent>
        </dc:publisher>
        <dc:creator>
          <cc:Agent>
            <dc:title></dc:title>
          </cc:Agent>
        </dc:creator>
        <dc:rights>
          <cc:Agent>
            <dc:title></dc:title>
          </cc:Agent>
        </dc:rights>
        <dc:date></dc:date>
        <dc:format>image/svg+xml</dc:format>
        <dc:type rdf:resource="http://purl.org/dc/dcmitype/StillImage"/>
        <cc:license rdf:resource="http://en.wikipedia.org/wiki/Public_domain"/>
        <dc:language>en</dc:language>
      </cc:Work>
    </rdf:RDF>
  </metadata>
  <defs><marker id="ArrowEnd" markerHeight="3" markerUnits="strokeWidth" markerWidth="4" orient="auto" refX="0" refY="5" viewBox="0 0 10 10"><path d="M 0 0 L 10 5 L 0 10 z"/></marker><marker id="ArrowStart" markerHeight="3" markerUnits="strokeWidth" markerWidth="4" orient="auto" refX="10" refY="5" viewBox="0 0 10 10"><path d="M 10 0 L 0 5 L 10 10 z"/></marker> </defs>
  <g id="g2958" transform="matrix(1.3532768,0,0,1.3532781,-53.207834,-52.192858)">
    <path d="M 91.5974 241.331C 91.6474 243.405 92.6834 247.346 99.4764 247.346C 103.155 247.346 107.253 246.463 107.253 242.522C 107.253 239.62 104.452 238.842 100.515 237.909L 96.5224 236.975C 90.5074 235.577 84.7024 234.229 84.7024 226.038C 84.7024 221.889 86.9334 214.581 99.0114 214.581C 110.417 214.581 113.476 222.045 113.526 226.608L 106.062 226.608C 105.854 224.948 105.233 221.006 98.4404 221.006C 95.4874 221.006 91.9604 222.096 91.9604 225.467C 91.9604 228.37 94.3474 228.991 95.9014 229.354L 104.976 231.584C 110.054 232.827 114.722 234.901 114.722 241.588C 114.722 252.788 103.315 253.772 100.05 253.772C 86.4684 253.772 84.1364 245.944 84.1364 241.331L 91.6014 241.331" style="stroke:none; fill-rule:evenodd; fill:#ff3e3e"/>
    <path d="M 136.437 252.788L 128.659 252.788L 128.659 222.151L 117.409 222.151L 117.409 215.565L 147.687 215.565L 147.687 222.151L 136.437 222.151L 136.437 252.788" style="stroke:none; fill-rule:evenodd; fill:#ff3e3e"/>
    <path d="M 168.519 214.581C 173.44 214.581 186.401 216.706 186.401 234.178C 186.401 251.647 173.44 253.776 168.519 253.776C 163.593 253.776 150.632 251.647 150.632 234.178C 150.632 216.706 163.593 214.581 168.519 214.581zM 168.519 247.19C 172.718 247.19 178.628 244.596 178.628 234.178C 178.628 223.756 172.718 221.166 168.519 221.166C 164.315 221.166 158.409 223.756 158.409 234.178C 158.409 244.596 164.319 247.19 168.519 247.19" style="stroke:none; fill-rule:evenodd; fill:#ff3e3e"/>
    <path d="M 200.39 252.788L 192.612 252.788L 192.612 215.565L 209.616 215.565C 216.823 215.565 221.179 220.178 221.179 227.491C 221.179 230.858 219.312 239.362 209.308 239.362L 200.39 239.362L 200.39 252.788zM 207.597 232.932C 213.401 232.932 213.401 228.784 213.401 227.127C 213.401 223.498 211.382 221.995 206.558 221.995L 200.39 221.995L 200.39 232.932L 207.597 232.932" style="stroke:none; fill-rule:evenodd; fill:#ff3e3e"/>
    <path d="M 152.679 138.245C 159.562 138.245 165.144 132.663 165.144 125.78C 165.144 118.897 159.562 113.319 152.679 113.319C 145.796 113.319 140.214 118.897 140.214 125.78C 140.214 132.663 145.796 138.245 152.679 138.245" style="stroke:none; fill-rule:evenodd; fill:#000000"/>
    <path d="M 98.5384 122.225L 94.5694 143.573C 92.8474 137.948 91.9134 131.975 91.9134 125.788C 91.9134 116.506 93.9954 107.713 97.7224 99.8504L 92.3784 96.8544C 88.1714 105.612 85.8124 115.424 85.8124 125.788C 85.8124 132.151 86.7184 138.295 88.3744 144.127L 73.1084 131.545L 69.3584 136.073L 97.6364 159.471L 104.315 123.307L 98.5384 122.225" style="stroke:none; fill-rule:evenodd; fill:#000000"/>
    <path d="M 130.151 166.272L 125.999 170.428L 140.952 185.338C 125.98 182.432 112.972 174.022 104.124 162.291L 98.6474 165.198C 108.14 178.194 122.206 187.616 138.472 191.143L 119.327 196.678L 120.944 202.327L 156.226 192.209L 130.151 166.272" style="stroke:none; fill-rule:evenodd; fill:#000000"/>
    <path d="M 178.886 164.088L 180.788 169.651L 200.593 162.838C 191.175 175.026 177.233 183.545 161.269 185.834L 161.972 192.049C 179.257 189.655 194.425 180.655 204.858 167.682L 201.429 187.19L 207.214 188.221L 213.647 152.088L 178.886 164.088" style="stroke:none; fill-rule:evenodd; fill:#000000"/>
    <path d="M 234.651 113.952L 207.62 89.1244L 199.085 124.901L 204.8 126.276L 209.765 105.557C 212.003 111.889 213.245 118.69 213.245 125.788C 213.245 132.635 212.108 139.221 210.019 145.366L 215.788 148.112C 218.261 141.127 219.604 133.616 219.604 125.788C 219.604 118.6 218.468 111.682 216.37 105.198L 230.675 118.28L 234.651 113.952" style="stroke:none; fill-rule:evenodd; fill:#000000"/>
    <path d="M 169.464 61.0184L 188.624 55.9244L 187.128 50.2414L 151.636 59.5964L 177.144 86.0884L 181.39 82.0224L 166.772 66.8114C 180.687 70.1474 192.741 78.2604 201.085 89.3424L 206.495 85.9984C 197.507 73.8704 184.507 64.8974 169.464 61.0184" style="stroke:none; fill-rule:evenodd; fill:#000000"/>
    <path d="M 147.647 65.3194L 147.659 59.0774C 130.897 60.3274 115.87 67.7644 104.819 79.0964L 110.405 59.7644L 104.765 58.1204L 94.4954 93.3584L 130.347 85.1434L 129.05 79.4134L 108.546 84.0844C 118.546 73.5304 132.28 66.5534 147.647 65.3194" style="stroke:none; fill-rule:evenodd; fill:#000000"/>
    <path d="M 29.6204 265.393L 2.62042 265.393" style="stroke:#000000; stroke-width:0.5; fill:none"/>
    <path d="M 38.6204 274.393L 38.6204 301.393" style="stroke:#000000; stroke-width:0.5; fill:none"/>
    <path d="M 29.6204 38.6204L 2.62042 38.6204" style="stroke:#000000; stroke-width:0.5; fill:none"/>
    <path d="M 38.6204 29.6204L 38.6204 2.62042" style="stroke:#000000; stroke-width:0.5; fill:none"/>
    <path d="M 274.394 38.6204L 301.394 38.6204" style="stroke:#000000; stroke-width:0.5; fill:none"/>
    <path d="M 265.394 29.6204L 265.394 2.62042" style="stroke:#000000; stroke-width:0.5; fill:none"/>
    <path d="M 274.394 265.393L 301.394 265.393" style="stroke:#000000; stroke-width:0.5; fill:none"/>
    <path d="M 265.394 274.393L 265.394 301.393" style="stroke:#000000; stroke-width:0.5; fill:none"/>
  </g>
</svg>

<svg viewBox="0 0 304.01 304.01"><g transform="matrix(1.35328 0 0 1.35328-53.21-52.19)" fill-rule="evenodd"><g fill="#ff3e3e"><path d="m91.6 241.33c.05 2.074 1.086 6.02 7.879 6.02 3.679 0 7.777-.883 7.777-4.824 0-2.902-2.801-3.68-6.738-4.613l-3.993-.934c-6.02-1.398-11.82-2.746-11.82-10.937 0-4.149 2.231-11.457 14.309-11.457 11.406 0 14.465 7.464 14.515 12.03h-7.464c-.208-1.66-.829-5.602-7.622-5.602-2.953 0-6.48 1.09-6.48 4.461 0 2.903 2.387 3.524 3.941 3.887l9.07 2.23c5.078 1.243 9.746 3.317 9.746 10 0 11.2-11.407 12.184-14.672 12.184-13.582 0-15.914-7.828-15.914-12.441h7.465"/><path d="m136.44 252.79h-7.778v-30.637h-11.25v-6.586h30.28v6.586h-11.25v30.637"/><path d="m168.52 214.58c4.921 0 17.882 2.125 17.882 19.597 0 17.469-12.961 19.598-17.882 19.598-4.926 0-17.887-2.129-17.887-19.598 0-17.472 12.961-19.597 17.887-19.597m0 32.609c4.199 0 10.11-2.594 10.11-13.01 0-10.422-5.91-13.01-10.11-13.01-4.204 0-10.11 2.59-10.11 13.01 0 10.418 5.91 13.01 10.11 13.01"/><path d="m200.39 252.79h-7.778v-37.22h17c7.207 0 11.563 4.613 11.563 11.926 0 3.367-1.867 11.871-11.871 11.871h-8.918v13.426m7.207-19.856c5.804 0 5.804-4.148 5.804-5.805 0-3.629-2.02-5.132-6.843-5.132h-6.168v10.937h7.207"/></g><path d="m152.68 138.25c6.883 0 12.465-5.582 12.465-12.465 0-6.883-5.582-12.461-12.465-12.461-6.883 0-12.465 5.578-12.465 12.461 0 6.883 5.582 12.465 12.465 12.465"/><path d="m98.54 122.22l-3.969 21.348c-1.722-5.625-2.656-11.598-2.656-17.785 0-9.282 2.082-18.08 5.809-25.938l-5.344-2.996c-4.207 8.758-6.566 18.57-6.566 28.934 0 6.363.906 12.507 2.562 18.339l-15.266-12.582-3.75 4.528 28.28 23.398 6.679-36.16-5.777-1.082"/><path d="m130.15 166.27l-4.152 4.156 14.953 14.91c-14.972-2.906-27.98-11.316-36.828-23.05l-5.477 2.907c9.493 12.996 23.559 22.418 39.825 25.945l-19.15 5.535 1.617 5.649 35.28-10.118-26.07-25.937"/><path d="m178.89 164.09l1.902 5.563 19.805-6.813c-9.418 12.188-23.36 20.707-39.32 22.996l.703 6.215c17.285-2.394 32.453-11.394 42.886-24.367l-3.429 19.508 5.785 1.031 6.433-36.13-34.761 12"/><path d="m234.65 113.95l-27.03-24.828-8.535 35.777 5.715 1.375 4.965-20.719c2.238 6.332 3.48 13.13 3.48 20.231 0 6.847-1.137 13.433-3.226 19.578l5.769 2.746c2.473-6.985 3.816-14.496 3.816-22.324 0-7.188-1.136-14.11-3.234-20.59l14.305 13.08 3.976-4.328"/><path d="m169.46 61.02l19.16-5.094-1.496-5.683-35.492 9.355 25.508 26.492 4.246-4.066-14.618-15.211c13.915 3.336 25.969 11.449 34.31 22.531l5.41-3.344c-8.988-12.13-21.988-21.1-37.03-24.98"/><path d="m147.65 65.32l.012-6.242c-16.762 1.25-31.789 8.687-42.84 20.02l5.586-19.332-5.64-1.644-10.27 35.24 35.852-8.215-1.297-5.73-20.504 4.671c10-10.554 23.734-17.531 39.1-18.765"/></g></svg>
